src/icons/SVG/48px/Universe_WoodSaw_48px.svg

<svg width="48" height="48" viewBox="0 0 48 48" fill="none" xmlns="http://www.w3.org/2000/svg">
<g id="Square"> </g>
<g id="Icon">
<path id="Union" fill-rule="evenodd" clip-rule="evenodd" d="M6.0548 32.5394C5.46901 33.1252 5.46901 34.075 6.0548 34.6608L14.5401 43.146C15.1259 43.7318 16.0756 43.7318 16.6614 43.146L21.3182 38.4892C21.6398 38.6427 22.0111 38.6793 22.3651 38.5812C22.8859 38.437 23.2888 38.0237 23.4199 37.4994L24.6198 32.6999L28.5095 31.6611C29.1532 31.4892 29.6063 30.9132 29.622 30.2472L29.7144 26.3184L32.6007 25.4287C33.2503 25.2284 33.684 24.6165 33.6577 23.9373L33.5005 19.8722L36.5012 19.2471C37.2072 19.1 37.7086 18.4713 37.695 17.7503L37.6266 14.1296L40.7539 12.9681C41.2328 12.7902 41.5882 12.3809 41.6971 11.8818C41.8061 11.3827 41.6535 10.8625 41.2923 10.5013L35.7533 4.96227C35.1675 4.37649 34.2178 4.37649 33.632 4.96227L11.7134 26.8809L11.7117 26.8826L6.0548 32.5394ZM12.7723 30.0646L19.1363 36.4285L15.6007 39.9641L9.23678 33.6001L12.7723 30.0646ZM21.9237 31.115L21.152 34.2016L18.0756 31.1252L25.5002 23.7006C25.8908 23.3101 25.8908 22.6769 25.5002 22.2864C25.1097 21.8959 24.4765 21.8959 24.086 22.2864L16.6614 29.711L14.8936 27.9432L34.6926 8.14426L37.5181 10.9697L35.5846 11.6879C34.9871 11.9098 34.5951 12.485 34.6071 13.1223L34.672 16.5637L31.6467 17.194C30.9297 17.3434 30.4254 17.9886 30.4537 18.7204L30.6154 22.9014L27.7984 23.7698C27.1818 23.9598 26.7559 24.5229 26.7407 25.1679L26.6493 29.0527L22.9919 30.0296C22.465 30.1703 22.056 30.5859 21.9237 31.115ZM13.833 33.2465C13.4425 32.856 12.8093 32.856 12.4188 33.2465C12.0282 33.6371 12.0282 34.2702 12.4188 34.6608L14.5401 36.7821C14.9306 37.1726 15.5638 37.1726 15.9543 36.7821C16.3448 36.3916 16.3448 35.7584 15.9543 35.3679L13.833 33.2465Z" fill="black"/>
</g>
</svg>

<svg xmlns="http://www.w3.org/2000/svg" viewBox="0 0 48 48">
  <g id="Square"> </g>
  <path fill-rule="evenodd" d="M6.055 32.54a1.5 1.5 0 000 2.12l8.485 8.486a1.5 1.5 0 002.121 0l4.657-4.657a1.5 1.5 0 002.102-.99l1.2-4.8 3.89-1.038a1.5 1.5 0 001.112-1.414l.092-3.929 2.887-.89a1.5 1.5 0 001.057-1.49l-.157-4.066 3-.625a1.5 1.5 0 001.194-1.497l-.068-3.62 3.127-1.162a1.5 1.5 0 00.538-2.467l-5.539-5.539a1.5 1.5 0 00-2.121 0L11.713 26.881l-.001.002-5.657 5.656zm6.717-2.475l6.364 6.363-3.535 3.536L9.237 33.6l3.535-3.535zm9.152 1.05l-.772 3.087-3.076-3.077 7.424-7.424a1 1 0 10-1.414-1.415l-7.425 7.425-1.767-1.768L34.693 8.144l2.825 2.826-1.933.718a1.5 1.5 0 00-.978 1.434l.065 3.442-3.025.63a1.5 1.5 0 00-1.193 1.526l.161 4.181-2.817.869a1.5 1.5 0 00-1.057 1.398l-.092 3.885-3.657.977a1.5 1.5 0 00-1.068 1.085zm-8.091 2.131a1 1 0 00-1.414 1.415l2.121 2.121a1 1 0 001.414-1.414l-2.121-2.122z"/>
</svg>
